Obsidian-SemiLight/actions/16s/mail-encrypted-part.svg

<svg viewBox="0 0 16 16" xmlns="http://www.w3.org/2000/svg"><path d="m1 2v12h8v-1h-6.34375l3.9863281-4.6503906 1.3574219 1.3574218c-.013148-.0236699 6-6 6-6v4.2929688h1v-6zm1.7070312 1h10.5859378l-5.292969 5.2929688zm-.7070312.7070312 3.9335938 3.9335938-3.9335938 4.589844zm10.5 4.2929688a1.5 1.5 0 0 0 -1.5 1.5v1.5h-1v3h5v-3h-1v-1.5a1.5 1.5 0 0 0 -1.5-1.5zm0 1a.5.5 0 0 1 .5.5v1.5h-1v-1.5a.5.5 0 0 1 .5-.5zm-1.5 3h3v1h-3z" fill="#4d4d4d"/></svg>

<svg xmlns="http://www.w3.org/2000/svg" viewBox="0 0 16 16">
  <defs id="defs3051">
    <style type="text/css" id="current-color-scheme">
      .ColorScheme-Text {
        color:#4d4d4d;
      }
      </style>
  </defs>
 <path style="fill:currentColor;fill-opacity:1;stroke:none" 
     d="M 1 2 L 1 14 L 9 14 L 9 13 L 2.65625 13 L 6.6425781 8.3496094 L 8 9.7070312 C 7.986852 9.6833613 14 3.7070312 14 3.7070312 L 14 8 L 15 8 L 15 2 L 1 2 z M 2.7070312 3 L 13.292969 3 L 8 8.2929688 L 2.7070312 3 z M 2 3.7070312 L 5.9335938 7.640625 L 2 12.230469 L 2 3.7070312 z M 12.5 8 A 1.5 1.5 0 0 0 11 9.5 L 11 11 L 10 11 L 10 14 L 15 14 L 15 11 L 14 11 L 14 9.5 A 1.5 1.5 0 0 0 12.5 8 z M 12.5 9 A 0.5 0.5 0 0 1 13 9.5 L 13 11 L 12 11 L 12 9.5 A 0.5 0.5 0 0 1 12.5 9 z M 11 12 L 14 12 L 14 13 L 11 13 L 11 12 z "
     class="ColorScheme-Text"
     />
</svg>
